img/skills/Github.svg

<svg width="46" height="55" viewBox="0 0 46 55" fill="none" xmlns="http://www.w3.org/2000/svg">
<path d="M23 2L1 15V40.5L23 53L45 40.5V15L23 2Z" fill="#010101" stroke="white" stroke-width="2"/>
<g clip-path="url(#clip0_594_3365)">
<path d="M22.5 9C12.2787 9 4 17.2787 4 27.5C4 35.6862 9.29562 42.6006 16.6494 45.0519C17.5744 45.2138 17.9212 44.6588 17.9212 44.1731C17.9212 43.7338 17.8981 42.2769 17.8981 40.7275C13.25 41.5831 12.0475 39.5944 11.6775 38.5537C11.4694 38.0219 10.5675 36.38 9.78125 35.9406C9.13375 35.5937 8.20875 34.7381 9.75813 34.715C11.215 34.6919 12.2556 36.0562 12.6025 36.6112C14.2675 39.4094 16.9269 38.6231 17.9906 38.1375C18.1525 36.935 18.6381 36.1256 19.17 35.6631C15.0537 35.2006 10.7525 33.605 10.7525 26.5287C10.7525 24.5169 11.4694 22.8519 12.6488 21.5569C12.4638 21.0944 11.8162 19.1981 12.8337 16.6544C12.8337 16.6544 14.3831 16.1688 17.9212 18.5506C19.4012 18.1344 20.9738 17.9262 22.5463 17.9262C24.1188 17.9262 25.6913 18.1344 27.1713 18.5506C30.7094 16.1456 32.2588 16.6544 32.2588 16.6544C33.2763 19.1981 32.6288 21.0944 32.4438 21.5569C33.6231 22.8519 34.34 24.4937 34.34 26.5287C34.34 33.6281 30.0156 35.2006 25.8994 35.6631C26.57 36.2412 27.1481 37.3513 27.1481 39.0856C27.1481 41.56 27.125 43.5488 27.125 44.1731C27.125 44.6588 27.4719 45.2369 28.3969 45.0519C32.0697 43.8123 35.2612 41.4521 37.5221 38.3034C39.783 35.1548 40.9994 31.3763 41 27.5C41 17.2787 32.7213 9 22.5 9Z" fill="white"/>
</g>
<defs>
<clipPath id="clip0_594_3365">
<rect width="37" height="37" fill="white" transform="translate(4 9)"/>
</clipPath>
</defs>
</svg>

<svg xmlns="http://www.w3.org/2000/svg" width="46" height="55" fill="none"><path fill="#010101" stroke="#fff" stroke-width="2" d="M23 2 1 15v25.5L23 53l22-12.5V15L23 2z"/><g clip-path="url(#a)"><path fill="#fff" d="M22.5 9C12.279 9 4 17.279 4 27.5c0 8.186 5.296 15.1 12.65 17.552.924.162 1.271-.393 1.271-.879 0-.44-.023-1.896-.023-3.446-4.648.856-5.85-1.133-6.22-2.173-.209-.532-1.11-2.174-1.897-2.613-.647-.347-1.572-1.203-.023-1.226 1.457-.023 2.498 1.341 2.845 1.896 1.665 2.798 4.324 2.012 5.388 1.527.162-1.203.647-2.012 1.179-2.475-4.116-.462-8.418-2.058-8.418-9.134 0-2.012.717-3.677 1.897-4.972-.185-.463-.833-2.359.185-4.903 0 0 1.55-.485 5.087 1.897a17.17 17.17 0 0 1 4.625-.625c1.573 0 3.145.208 4.625.625 3.538-2.405 5.088-1.897 5.088-1.897 1.017 2.544.37 4.44.185 4.903 1.18 1.295 1.896 2.937 1.896 4.972 0 7.1-4.324 8.672-8.44 9.134.67.578 1.248 1.688 1.248 3.423 0 2.474-.023 4.463-.023 5.087 0 .486.347 1.064 1.272.879A18.528 18.528 0 0 0 41 27.5C41 17.279 32.721 9 22.5 9z"/></g><defs><clipPath id="a"><path fill="#fff" d="M4 9h37v37H4z"/></clipPath></defs></svg>
